X:84
T:Paddy Fahy's
R:jig
C:Paddy Fahy
H:Also played in C, #341
Z:id:hn-jig-84
M:6/8
K:D
~d3 edc|dAF DFA|~G3 EFG|ABc dfe|~d3 edc|dAF DFA|~G3 EAG|FDD D3:|
|:~d3 ~a3|dag afd|B2g gfg|Beg bge|~d3 ~a3|dag a2b|afd gec|dAF D3:|

